figures/euler_q_raw.svg

<?xml version="1.0" encoding="UTF-8" standalone="no"?>
<!-- This file was generated by dvisvgm 3.0.3 -->

<svg
   xmlns:dc="http://purl.org/dc/elements/1.1/"
   xmlns:cc="http://creativecommons.org/ns#"
   xmlns:rdf="http://www.w3.org/1999/02/22-rdf-syntax-ns#"
   xmlns:svg="http://www.w3.org/2000/svg"
   xmlns="http://www.w3.org/2000/svg"
   xmlns:xlink="http://www.w3.org/1999/xlink"
   xmlns:sodipodi="http://sodipodi.sourceforge.net/DTD/sodipodi-0.dtd"
   xmlns:inkscape="http://www.inkscape.org/namespaces/inkscape"
   version="1.1"
   width="45.1189pt"
   height="15.940224pt"
   viewBox="218.51045 77.210461 45.118901 15.940224"
   id="svg22"
   sodipodi:docname="euler_q_raw.svg"
   inkscape:version="0.92.4 (5da689c313, 2019-01-14)">
  <metadata
     id="metadata26">
    <rdf:RDF>
      <cc:Work
         rdf:about="">
        <dc:format>image/svg+xml</dc:format>
        <dc:type
           rdf:resource="http://purl.org/dc/dcmitype/StillImage" />
        <dc:title></dc:title>
      </cc:Work>
    </rdf:RDF>
  </metadata>
  <sodipodi:namedview
     pagecolor="#ffffff"
     bordercolor="#666666"
     borderopacity="1"
     objecttolerance="10"
     gridtolerance="10"
     guidetolerance="10"
     inkscape:pageopacity="0"
     inkscape:pageshadow="2"
     inkscape:window-width="1920"
     inkscape:window-height="1017"
     id="namedview24"
     showgrid="false"
     fit-margin-top="0"
     fit-margin-left="0"
     fit-margin-right="0"
     fit-margin-bottom="0"
     inkscape:zoom="12.714929"
     inkscape:cx="19.245089"
     inkscape:cy="10.626817"
     inkscape:window-x="-8"
     inkscape:window-y="-8"
     inkscape:window-maximized="1"
     inkscape:current-layer="svg22" />
  <defs
     id="defs7">
    <path
       id="g0-49"
       d="M 4.030884,-1.910834 C 3.66127,-2.343213 3.549689,-2.461768 3.284682,-2.650062 2.859278,-2.956912 2.412951,-3.075467 2.02939,-3.075467 c -0.864757,0 -1.492404,0.739228 -1.492404,1.57609 0,0.81594 0.599751,1.569115 1.471482,1.569115 0.969365,0 1.645828,-0.795018 1.896887,-1.164632 0.369614,0.432378 0.481195,0.550934 0.746202,0.739228 0.425404,0.306849 0.871731,0.425404 1.255292,0.425404 0.864757,0 1.492404,-0.739227 1.492404,-1.576089 0,-0.81594 -0.599751,-1.569116 -1.471482,-1.569116 -0.969365,0 -1.645828,0.795019 -1.896887,1.164633 z m 0.223163,0.258032 c 0.278954,-0.4533 0.885679,-1.157659 1.736488,-1.157659 0.718307,0 1.21345,0.63462 1.21345,1.30411 0,0.66949 -0.54396,1.192528 -1.185554,1.192528 -0.648568,0 -1.094894,-0.530013 -1.764384,-1.338979 z m -0.571855,0.299875 c -0.278954,0.453301 -0.885679,1.157659 -1.736488,1.157659 -0.718307,0 -1.21345,-0.63462 -1.21345,-1.304109 0,-0.669489 0.54396,-1.192528 1.185554,-1.192528 0.648568,0 1.094894,0.530012 1.764384,1.338978 z"
       inkscape:connector-curvature="0" />
    <path
       id="g2-40"
       d="m 3.297634,2.391034 c 0,-0.029888 0,-0.049814 -0.169365,-0.219178 -1.24533,-1.255293 -1.564135,-3.138232 -1.564135,-4.662516 0,-1.733499 0.378581,-3.466999 1.603986,-4.712329 0.129514,-0.119551 0.129514,-0.139477 0.129514,-0.169365 0,-0.069738 -0.039851,-0.099626 -0.099627,-0.099626 -0.099626,0 -0.996264,0.677459 -1.584059,1.942715 -0.508095,1.09589 -0.627647,2.201743 -0.627647,3.038605 0,0.777086 0.109589,1.982565 0.657535,3.108344 0.597758,1.225404 1.454545,1.872976 1.554171,1.872976 0.059776,0 0.099627,-0.029888 0.099627,-0.099626 z"
       inkscape:connector-curvature="0" />
    <path
       id="g2-41"
       d="m 2.879203,-2.49066 c 0,-0.777086 -0.109589,-1.982565 -0.657534,-3.108344 C 1.62391,-6.824408 0.767123,-7.47198 0.667497,-7.47198 c -0.059776,0 -0.099627,0.03985 -0.099627,0.099626 0,0.029888 0,0.049814 0.189291,0.229141 0.976338,0.986301 1.544209,2.570361 1.544209,4.652553 0,1.703611 -0.368618,3.457036 -1.603985,4.712329 C 0.56787,2.34122 0.56787,2.361146 0.56787,2.391034 c 0,0.059775 0.039851,0.099626 0.099627,0.099626 0.099626,0 0.996264,-0.67746 1.58406,-1.942715 0.508094,-1.09589 0.627646,-2.201743 0.627646,-3.038605 z"
       inkscape:connector-curvature="0" />
    <path
       id="g2-59"
       d="m 1.912827,-3.765878 c 0,-0.288917 -0.239103,-0.52802 -0.52802,-0.52802 -0.288917,0 -0.52802,0.239103 -0.52802,0.52802 0,0.288917 0.239103,0.52802 0.52802,0.52802 0.288917,0 0.52802,-0.239103 0.52802,-0.52802 z m -0.18929,3.656289 c 0,0.278954 0,1.05604 -0.637609,1.793275 C 1.016189,1.763387 1.016189,1.783313 1.016189,1.8132 c 0,0.069739 0.049813,0.10959 0.099627,0.10959 0.109589,0 0.826899,-0.797012 0.826899,-1.952678 0,-0.288916 -0.019925,-1.026152 -0.557908,-1.026152 -0.348692,0 -0.52802,0.268991 -0.52802,0.52802 C 0.856787,-0.268991 1.026152,0 1.384807,0 1.43462,0 1.454545,0 1.464508,-0.009963 1.534247,-0.019925 1.643836,-0.039851 1.723537,-0.109589 Z"
       inkscape:connector-curvature="0" />
    <path
       id="g1-113"
       d="m 4.503113,-4.293898 c 0,-0.03985 -0.029888,-0.099626 -0.099626,-0.099626 -0.109589,0 -0.508095,0.398505 -0.67746,0.687422 -0.219178,-0.537983 -0.607721,-0.697385 -0.926525,-0.697385 -1.175592,0 -2.400996,1.474471 -2.400996,2.919054 0,0.976338 0.587795,1.594022 1.315068,1.594022 0.428394,0 0.816937,-0.239103 1.175592,-0.597758 C 2.799502,-0.139477 2.470735,1.205479 2.440847,1.295143 2.361146,1.574097 2.281445,1.613948 1.723537,1.62391 c -0.129515,0 -0.229141,0 -0.229141,0.199253 0,0.00996 0,0.109589 0.129514,0.109589 0.318805,0 0.667497,-0.029888 0.996264,-0.029888 0.33873,0 0.697385,0.029888 1.026152,0.029888 0.049813,0 0.179328,0 0.179328,-0.199253 0,-0.109589 -0.099627,-0.109589 -0.259029,-0.109589 -0.478207,0 -0.478207,-0.069738 -0.478207,-0.159402 0,-0.069738 0.019926,-0.129514 0.039851,-0.219178 z m -2.759651,4.184309 c -0.597758,0 -0.637609,-0.767123 -0.637609,-0.936488 0,-0.478207 0.288917,-1.564135 0.458281,-1.982566 0.308842,-0.737235 0.8269,-1.155666 1.235368,-1.155666 0.647571,0 0.787048,0.806974 0.787048,0.876712 0,0.059776 -0.547945,2.241595 -0.577833,2.281445 -0.149439,0.278954 -0.707347,0.916563 -1.265255,0.916563 z"
       inkscape:connector-curvature="0" />
  </defs>
  <g
     id="page1"
     transform="matrix(1.6,0,0,1.6,-132.68436,-46.326278)">
    <use
       x="218.51045"
       y="84.682442"
       xlink:href="#g2-40"
       id="use9"
       width="100%"
       height="100%" />
    <use
       x="222.38483"
       y="84.682442"
       xlink:href="#g1-113"
       id="use11"
       width="100%"
       height="100%" />
    <use
       x="227.18973"
       y="84.682442"
       xlink:href="#g2-59"
       id="use13"
       width="100%"
       height="100%" />
    <use
       x="231.61754"
       y="84.682442"
       xlink:href="#g1-113"
       id="use15"
       width="100%"
       height="100%" />
    <use
       x="236.42244"
       y="84.682442"
       xlink:href="#g2-41"
       id="use17"
       width="100%"
       height="100%" />
    <use
       x="240.29681"
       y="86.176819"
       xlink:href="#g0-49"
       id="use19"
       width="100%"
       height="100%" />
  </g>
</svg>

<?xml version='1.0' encoding='UTF-8'?>
<!-- This file was generated by dvisvgm 3.0.3 -->
<svg version='1.1' xmlns='http://www.w3.org/2000/svg' xmlns:xlink='http://www.w3.org/1999/xlink' width='29.728833pt' height='9.96264pt' viewBox='218.51045 77.210461 29.728833 9.96264'>
<defs>
<path id='g0-49' d='M4.030884-1.910834C3.66127-2.343213 3.549689-2.461768 3.284682-2.650062C2.859278-2.956912 2.412951-3.075467 2.02939-3.075467C1.164633-3.075467 .536986-2.336239 .536986-1.499377C.536986-.683437 1.136737 .069738 2.008468 .069738C2.977833 .069738 3.654296-.72528 3.905355-1.094894C4.274969-.662516 4.38655-.54396 4.651557-.355666C5.076961-.048817 5.523288 .069738 5.906849 .069738C6.771606 .069738 7.399253-.669489 7.399253-1.506351C7.399253-2.322291 6.799502-3.075467 5.927771-3.075467C4.958406-3.075467 4.281943-2.280448 4.030884-1.910834ZM4.254047-1.652802C4.533001-2.106102 5.139726-2.810461 5.990535-2.810461C6.708842-2.810461 7.203985-2.175841 7.203985-1.506351S6.660025-.313823 6.018431-.313823C5.369863-.313823 4.923537-.843836 4.254047-1.652802ZM3.682192-1.352927C3.403238-.899626 2.796513-.195268 1.945704-.195268C1.227397-.195268 .732254-.829888 .732254-1.499377S1.276214-2.691905 1.917808-2.691905C2.566376-2.691905 3.012702-2.161893 3.682192-1.352927Z'/>
<path id='g2-40' d='M3.297634 2.391034C3.297634 2.361146 3.297634 2.34122 3.128269 2.171856C1.882939 .916563 1.564134-.966376 1.564134-2.49066C1.564134-4.224159 1.942715-5.957659 3.16812-7.202989C3.297634-7.32254 3.297634-7.342466 3.297634-7.372354C3.297634-7.442092 3.257783-7.47198 3.198007-7.47198C3.098381-7.47198 2.201743-6.794521 1.613948-5.529265C1.105853-4.433375 .986301-3.327522 .986301-2.49066C.986301-1.713574 1.09589-.508095 1.643836 .617684C2.241594 1.843088 3.098381 2.49066 3.198007 2.49066C3.257783 2.49066 3.297634 2.460772 3.297634 2.391034Z'/>
<path id='g2-41' d='M2.879203-2.49066C2.879203-3.267746 2.769614-4.473225 2.221669-5.599004C1.62391-6.824408 .767123-7.47198 .667497-7.47198C.607721-7.47198 .56787-7.43213 .56787-7.372354C.56787-7.342466 .56787-7.32254 .757161-7.143213C1.733499-6.156912 2.30137-4.572852 2.30137-2.49066C2.30137-.787049 1.932752 .966376 .697385 2.221669C.56787 2.34122 .56787 2.361146 .56787 2.391034C.56787 2.450809 .607721 2.49066 .667497 2.49066C.767123 2.49066 1.663761 1.8132 2.251557 .547945C2.759651-.547945 2.879203-1.653798 2.879203-2.49066Z'/>
<path id='g2-59' d='M1.912827-3.765878C1.912827-4.054795 1.673724-4.293898 1.384807-4.293898S.856787-4.054795 .856787-3.765878S1.09589-3.237858 1.384807-3.237858S1.912827-3.476961 1.912827-3.765878ZM1.723537-.109589C1.723537 .169365 1.723537 .946451 1.085928 1.683686C1.016189 1.763387 1.016189 1.783313 1.016189 1.8132C1.016189 1.882939 1.066002 1.92279 1.115816 1.92279C1.225405 1.92279 1.942715 1.125778 1.942715-.029888C1.942715-.318804 1.92279-1.05604 1.384807-1.05604C1.036115-1.05604 .856787-.787049 .856787-.52802S1.026152 0 1.384807 0C1.43462 0 1.454545 0 1.464508-.009963C1.534247-.019925 1.643836-.039851 1.723537-.109589Z'/>
<path id='g1-113' d='M4.503113-4.293898C4.503113-4.333748 4.473225-4.393524 4.403487-4.393524C4.293898-4.393524 3.895392-3.995019 3.726027-3.706102C3.506849-4.244085 3.118306-4.403487 2.799502-4.403487C1.62391-4.403487 .398506-2.929016 .398506-1.484433C.398506-.508095 .986301 .109589 1.713574 .109589C2.141968 .109589 2.530511-.129514 2.889166-.488169C2.799502-.139477 2.470735 1.205479 2.440847 1.295143C2.361146 1.574097 2.281445 1.613948 1.723537 1.62391C1.594022 1.62391 1.494396 1.62391 1.494396 1.823163C1.494396 1.833126 1.494396 1.932752 1.62391 1.932752C1.942715 1.932752 2.291407 1.902864 2.620174 1.902864C2.958904 1.902864 3.317559 1.932752 3.646326 1.932752C3.696139 1.932752 3.825654 1.932752 3.825654 1.733499C3.825654 1.62391 3.726027 1.62391 3.566625 1.62391C3.088418 1.62391 3.088418 1.554172 3.088418 1.464508C3.088418 1.39477 3.108344 1.334994 3.128269 1.24533L4.503113-4.293898ZM1.743462-.109589C1.145704-.109589 1.105853-.876712 1.105853-1.046077C1.105853-1.524284 1.39477-2.610212 1.564134-3.028643C1.872976-3.765878 2.391034-4.184309 2.799502-4.184309C3.447073-4.184309 3.58655-3.377335 3.58655-3.307597C3.58655-3.247821 3.038605-1.066002 3.008717-1.026152C2.859278-.747198 2.30137-.109589 1.743462-.109589Z'/>
</defs>
<g id='page1'>
<use x='218.51045' y='84.682441' xlink:href='#g2-40'/>
<use x='222.384824' y='84.682441' xlink:href='#g1-113'/>
<use x='227.189726' y='84.682441' xlink:href='#g2-59'/>
<use x='231.617533' y='84.682441' xlink:href='#g1-113'/>
<use x='236.422435' y='84.682441' xlink:href='#g2-41'/>
<use x='240.296809' y='86.176822' xlink:href='#g0-49'/>
</g>
</svg>
